packages/components/Atoms/Icon/assets/img/rpl_icon_external_link.svg

<svg width="14" height="14" viewBox="0 0 14 14" overflow="visible" xmlns="http://www.w3.org/2000/svg">
  <path d="M14 1.53906V12.6016C14 13.3008 13.3008 14 12.4609 14H1.53906C0.699219 14 0 13.3008 0 12.4609V1.53906C0 0.699219 0.699219 0 1.53906 0H12.6016C13.3008 0 14 0.699219 14 1.53906ZM11.1992 1.96094H7.69922C7.14063 1.96094 6.71875 2.80078 7.28125 3.21875L8.26172 4.19922L2.10156 10.3594C1.96094 10.5 1.96094 10.7812 2.10156 10.9219L3.07812 11.8984C3.21875 12.0391 3.5 12.0391 3.64062 11.8984L9.80078 5.73828L10.7812 6.71875C11.1992 7.28125 12.0391 6.85937 12.0391 6.30078V2.80078C12.0391 2.37891 11.6211 1.96094 11.1992 1.96094Z"
    fill="inherit" />
</svg>

<svg width="14" height="14" overflow="visible" xmlns="http://www.w3.org/2000/svg"><path d="M14 1.54v11.062C14 13.3 13.3 14 12.46 14H1.54C.7 14 0 13.3 0 12.46V1.54C0 .7.7 0 1.54 0h11.062C13.3 0 14 .7 14 1.54zm-2.8.42H7.7c-.56 0-.981.84-.419 1.259l.98.98-6.16 6.16a.428.428 0 000 .563l.977.976c.14.141.422.141.563 0l6.16-6.16.98.98c.418.563 1.258.141 1.258-.417V2.8c0-.422-.418-.84-.84-.84z" fill="inherit"/></svg>
